src/assets/filled/Setting3.svg

<?xml version="1.0" encoding="UTF-8"?>
<svg width="24" height="24" viewBox="0 0 24 24" xmlns="http://www.w3.org/2000/svg">
 <path d="m16.19 2h-8.38c-3.64 0-5.81 2.17-5.81 5.81v8.37c0 3.65 2.17 5.82 5.81 5.82h8.37c3.64 0 5.81-2.17 5.81-5.81v-8.38c0.01-3.64-2.16-5.81-5.8-5.81zm-8.52 3.5c0-0.41 0.34-0.75 0.75-0.75s0.75 0.34 0.75 0.75v3.9c0 0.41-0.34 0.75-0.75 0.75s-0.75-0.34-0.75-0.75v-3.9zm1.8528 10.931c-0.20344 0.0903-0.35282 0.2819-0.35282 0.5045v1.5642c0 0.41-0.34 0.75-0.75 0.75s-0.75-0.34-0.75-0.75v-1.5642c0-0.2226-0.1494-0.4142-0.35277-0.5047-0.95448-0.4247-1.6172-1.3731-1.6172-2.4811 0-1.5 1.22-2.73 2.72-2.73s2.73 1.22 2.73 2.73c0 1.1082-0.6709 2.0566-1.6272 2.4813zm6.8072 2.0687c0 0.41-0.34 0.75-0.75 0.75s-0.75-0.34-0.75-0.75v-3.9c0-0.41 0.34-0.75 0.75-0.75s0.75 0.34 0.75 0.75v3.9zm-0.75-5.73c-1.5 0-2.73-1.22-2.73-2.73 0-1.1082 0.6709-2.0566 1.6272-2.4813 0.2034-0.09034 0.3528-0.28192 0.3528-0.50452v-1.5542c0-0.41 0.34-0.75 0.75-0.75s0.75 0.34 0.75 0.75v1.5642c0 0.2226 0.1494 0.41414 0.3528 0.50464 0.9544 0.42475 1.6172 1.3731 1.6172 2.4812 0 1.5-1.22 2.72-2.72 2.72z"/>
</svg>

<svg width="24" height="24" viewBox="0 0 24 24"  xmlns="http://www.w3.org/2000/svg">
<path d="M16.19 2H7.81C4.17 2 2 4.17 2 7.81V16.18C2 19.83 4.17 22 7.81 22H16.18C19.82 22 21.99 19.83 21.99 16.19V7.81C22 4.17 19.83 2 16.19 2ZM7.67 5.5C7.67 5.09 8.01 4.75 8.42 4.75C8.83 4.75 9.17 5.09 9.17 5.5V9.4C9.17 9.81 8.83 10.15 8.42 10.15C8.01 10.15 7.67 9.81 7.67 9.4V5.5ZM9.52282 16.4313C9.31938 16.5216 9.17 16.7132 9.17 16.9358V18.5C9.17 18.91 8.83 19.25 8.42 19.25C8.01 19.25 7.67 18.91 7.67 18.5V16.9358C7.67 16.7132 7.5206 16.5216 7.31723 16.4311C6.36275 16.0064 5.7 15.058 5.7 13.95C5.7 12.45 6.92 11.22 8.42 11.22C9.92 11.22 11.15 12.44 11.15 13.95C11.15 15.0582 10.4791 16.0066 9.52282 16.4313ZM16.33 18.5C16.33 18.91 15.99 19.25 15.58 19.25C15.17 19.25 14.83 18.91 14.83 18.5V14.6C14.83 14.19 15.17 13.85 15.58 13.85C15.99 13.85 16.33 14.19 16.33 14.6V18.5ZM15.58 12.77C14.08 12.77 12.85 11.55 12.85 10.04C12.85 8.93185 13.5209 7.98342 14.4772 7.55873C14.6806 7.46839 14.83 7.27681 14.83 7.05421V5.5C14.83 5.09 15.17 4.75 15.58 4.75C15.99 4.75 16.33 5.09 16.33 5.5V7.06421C16.33 7.28681 16.4794 7.47835 16.6828 7.56885C17.6372 7.9936 18.3 8.94195 18.3 10.05C18.3 11.55 17.08 12.77 15.58 12.77Z" />
</svg>
